public/primaries/MovieCamera.svg

<svg id="Layer_1" data-name="Layer 1" xmlns="http://www.w3.org/2000/svg" width="64" height="64" viewBox="0 0 64 64">
  <defs>
    <style>
      .cls-1 {
        fill-rule: evenodd;
      }
    </style>
  </defs>
  <title>Icons 400</title>
  <path class="cls-1" d="M52.5528,41.911l-7.7236-3.8649A1.5013,1.5013,0,0,1,44,36.7033V31.3168a1.5013,1.5013,0,0,1,.8292-1.3428l7.7236-3.865A1,1,0,0,1,54,27.0043V41.0158A1,1,0,0,1,52.5528,41.911ZM38,22.0156a8,8,0,1,1,8-8A8,8,0,0,1,38,22.0156Zm0-12a4,4,0,1,0,4,4A4,4,0,0,0,38,10.0153Zm-18,12a8,8,0,1,1,8-8A8,8,0,0,1,20,22.0156Zm0-12a4,4,0,1,0,4,4A4,4,0,0,0,20,10.0153Zm-2,14H40a2,2,0,0,1,2,2v14a2,2,0,0,1-2,2H18a2,2,0,0,1-2-2v-14A2,2,0,0,1,18,24.0156ZM21.717,45.137a1.7517,1.7517,0,0,1,1.6347-1.1214H24.99a1,1,0,0,1,.9341,1.3592l-3.6673,9.5194a1.7515,1.7515,0,0,1-1.6347,1.1214H18.9839a1,1,0,0,1-.9342-1.3592Zm11.2659-1.1214h1.6444a1.7584,1.7584,0,0,1,1.6411,1.1214L39.95,54.6564a1.0007,1.0007,0,0,1-.9379,1.3592H37.3679a1.7583,1.7583,0,0,1-1.6411-1.1214l-3.6817-9.5194A1.0006,1.0006,0,0,1,32.9829,44.0156Z"/>
</svg>

<svg id="Layer_1" data-name="Layer 1" xmlns="http://www.w3.org/2000/svg" width="64" height="64" viewBox="0 0 64 64"><defs><style>.cls-1{fill-rule:evenodd}</style></defs><title>Icons 400</title><path class="cls-1" d="M52.553 41.911l-7.724-3.865A1.501 1.501 0 0 1 44 36.703v-5.386a1.501 1.501 0 0 1 .83-1.343l7.723-3.865a1 1 0 0 1 1.447.895v14.012a1 1 0 0 1-1.447.895zM38 22.016a8 8 0 1 1 8-8 8 8 0 0 1-8 8zm0-12a4 4 0 1 0 4 4 4 4 0 0 0-4-4zm-18 12a8 8 0 1 1 8-8 8 8 0 0 1-8 8zm0-12a4 4 0 1 0 4 4 4 4 0 0 0-4-4zm-2 14h22a2 2 0 0 1 2 2v14a2 2 0 0 1-2 2H18a2 2 0 0 1-2-2v-14a2 2 0 0 1 2-2zm3.717 21.121a1.752 1.752 0 0 1 1.635-1.121h1.638a1 1 0 0 1 .934 1.359l-3.667 9.52a1.752 1.752 0 0 1-1.635 1.12h-1.638a1 1 0 0 1-.934-1.359zm11.266-1.121h1.644a1.758 1.758 0 0 1 1.641 1.121l3.682 9.52a1 1 0 0 1-.938 1.359h-1.644a1.758 1.758 0 0 1-1.641-1.122l-3.682-9.52a1 1 0 0 1 .938-1.358z"/></svg>
